Newaita-dark/.places-ubuntu/256/user-desktop.svg

<?xml version="1.0" encoding="UTF-8"?>
<svg xmlns="http://www.w3.org/2000/svg" xmlns:xlink="http://www.w3.org/1999/xlink" width="256pt" height="256pt" viewBox="0 0 256 256" version="1.1">
<defs>
<linearGradient id="linear0" gradientUnits="userSpaceOnUse" x1="254" y1="233.5" x2="254" y2="254.666672" gradientTransform="matrix(0.500048,0,0,0.500048,-0.0000305205,107.510266)">
<stop offset="0" style="stop-color:rgb(0%,0%,0%);stop-opacity:0.27451;"/>
<stop offset="1" style="stop-color:rgb(0%,0%,0%);stop-opacity:0;"/>
</linearGradient>
<radialGradient id="radial0" gradientUnits="userSpaceOnUse" cx="450.908936" cy="189.579361" fx="450.908936" fy="189.579361" r="21.166656" gradientTransform="matrix(0.00000139336,-0.62506,-1.125108,-0.000000812309,427.629528,508.762645)">
<stop offset="0" style="stop-color:rgb(0%,0%,0%);stop-opacity:0.313725;"/>
<stop offset="0.222222" style="stop-color:rgb(0%,0%,0%);stop-opacity:0.27451;"/>
<stop offset="1" style="stop-color:rgb(0%,0%,0%);stop-opacity:0;"/>
</radialGradient>
<radialGradient id="radial1" gradientUnits="userSpaceOnUse" cx="450.908936" cy="189.579361" fx="450.908936" fy="189.579361" r="21.166656" gradientTransform="matrix(-0.00000139336,0.62506,1.125108,0.000000812309,-173.605291,-60.219846)">
<stop offset="0" style="stop-color:rgb(0%,0%,0%);stop-opacity:0.313725;"/>
<stop offset="0.222222" style="stop-color:rgb(0%,0%,0%);stop-opacity:0.27451;"/>
<stop offset="1" style="stop-color:rgb(0%,0%,0%);stop-opacity:0;"/>
</radialGradient>
<radialGradient id="radial2" gradientUnits="userSpaceOnUse" cx="450.908936" cy="189.579361" fx="450.908936" fy="189.579361" r="21.166656" gradientTransform="matrix(-0.00000139336,-0.62506,1.125108,-0.000000812309,-173.605291,508.762645)">
<stop offset="0" style="stop-color:rgb(0%,0%,0%);stop-opacity:0.313725;"/>
<stop offset="0.222222" style="stop-color:rgb(0%,0%,0%);stop-opacity:0.27451;"/>
<stop offset="1" style="stop-color:rgb(0%,0%,0%);stop-opacity:0;"/>
</radialGradient>
<radialGradient id="radial3" gradientUnits="userSpaceOnUse" cx="450.908936" cy="189.579361" fx="450.908936" fy="189.579361" r="21.166656" gradientTransform="matrix(0.00000139336,0.62506,-1.125108,0.000000812309,427.629513,-60.21985)">
<stop offset="0" style="stop-color:rgb(0%,0%,0%);stop-opacity:0.313725;"/>
<stop offset="0.222222" style="stop-color:rgb(0%,0%,0%);stop-opacity:0.27451;"/>
<stop offset="1" style="stop-color:rgb(0%,0%,0%);stop-opacity:0;"/>
</radialGradient>
<linearGradient id="linear1" gradientUnits="userSpaceOnUse" x1="254" y1="233.5" x2="254" y2="-147.5" gradientTransform="matrix(0.500048,0,0,0.500048,0,107.510266)">
<stop offset="0" style="stop-color:rgb(38.039216%,38.039216%,38.039216%);stop-opacity:1;"/>
<stop offset="1" style="stop-color:rgb(45.882353%,45.882353%,45.882353%);stop-opacity:1;"/>
</linearGradient>
<linearGradient id="linear2" gradientUnits="userSpaceOnUse" x1="880.000061" y1="254.291016" x2="880.000061" y2="1694.291138" gradientTransform="matrix(0.132304,0,0,0.132304,0,0.109431)">
<stop offset="0" style="stop-color:rgb(100%,54.117647%,39.607843%);stop-opacity:1;"/>
<stop offset="1" style="stop-color:rgb(100%,43.921569%,26.27451%);stop-opacity:1;"/>
</linearGradient>
<linearGradient id="linear3" gradientUnits="userSpaceOnUse" x1="444.5" y1="185.875" x2="444.5" y2="148.833328" gradientTransform="matrix(0.5,0,0,0.571428,-105.833473,106.337929)">
<stop offset="0" style="stop-color:rgb(40.392157%,22.745098%,71.764706%);stop-opacity:1;"/>
<stop offset="1" style="stop-color:rgb(49.411765%,34.117647%,76.078431%);stop-opacity:1;"/>
</linearGradient>
<linearGradient id="linear4" gradientUnits="userSpaceOnUse" x1="444.5" y1="185.875" x2="444.5" y2="148.833328" gradientTransform="matrix(0.5,0,0,0.571428,-21.166807,106.119087)">
<stop offset="0" style="stop-color:rgb(40.392157%,22.745098%,71.764706%);stop-opacity:1;"/>
<stop offset="1" style="stop-color:rgb(49.411765%,34.117647%,76.078431%);stop-opacity:1;"/>
</linearGradient>
<linearGradient id="linear5" gradientUnits="userSpaceOnUse" x1="444.5" y1="185.875" x2="444.5" y2="148.833328" gradientTransform="matrix(0.5,0,0,0.571428,169.333206,106.337929)">
<stop offset="0" style="stop-color:rgb(40.392157%,22.745098%,71.764706%);stop-opacity:1;"/>
<stop offset="1" style="stop-color:rgb(49.411765%,34.117647%,76.078431%);stop-opacity:1;"/>
</linearGradient>
</defs>
<g id="surface1">
<path style=" stroke:none;fill-rule:nonzero;fill:url(#linear0);" d="M 37.046875 224.269531 L 216.980469 224.269531 L 216.980469 234.855469 L 37.046875 234.855469 Z M 37.046875 224.269531 "/>
<path style=" stroke:none;fill-rule:nonzero;fill:url(#radial0);" d="M 216.980469 224.269531 L 238.148438 224.269531 L 238.148438 213.6875 L 216.980469 213.6875 Z M 216.980469 224.269531 "/>
<path style=" stroke:none;fill-rule:nonzero;fill:url(#radial1);" d="M 37.046875 224.269531 L 15.875 224.269531 L 15.875 234.855469 L 37.046875 234.855469 Z M 37.046875 224.269531 "/>
<path style=" stroke:none;fill-rule:nonzero;fill:url(#radial2);" d="M 37.046875 224.269531 L 15.875 224.269531 L 15.875 213.6875 L 37.046875 213.6875 Z M 37.046875 224.269531 "/>
<path style=" stroke:none;fill-rule:nonzero;fill:url(#radial3);" d="M 216.980469 224.269531 L 238.148438 224.269531 L 238.148438 234.855469 L 216.980469 234.855469 Z M 216.980469 224.269531 "/>
<path style=" stroke:none;fill-rule:nonzero;fill:url(#linear1);" d="M 25.539062 34.097656 L 228.484375 34.097656 C 233.820312 34.097656 238.148438 38.570312 238.148438 44.089844 L 238.148438 213.933594 C 238.148438 219.453125 233.820312 223.925781 228.484375 223.925781 L 25.539062 223.925781 C 20.203125 223.925781 15.875 219.453125 15.875 213.933594 L 15.875 44.089844 C 15.875 38.570312 20.203125 34.097656 25.539062 34.097656 Z M 25.539062 34.097656 "/>
<path style=" stroke:none;fill-rule:nonzero;fill:rgb(0%,0%,0%);fill-opacity:0.235294;" d="M 26.460938 224.375 C 20.597656 224.375 15.875 219.65625 15.875 213.792969 L 15.875 211.039062 C 15.875 216.90625 20.597656 221.625 26.460938 221.625 L 227.5625 221.625 C 233.425781 221.625 238.148438 216.90625 238.148438 211.039062 L 238.148438 213.792969 C 238.148438 219.65625 233.425781 224.375 227.5625 224.375 Z M 26.460938 224.375 "/>
<path style=" stroke:none;fill-rule:nonzero;fill:url(#linear2);" d="M 52.921875 192.628906 C 47.058594 192.628906 42.335938 197.347656 42.335938 203.210938 L 42.335938 219.089844 C 42.335938 222.019531 44.699219 224.378906 47.628906 224.378906 L 206.394531 224.378906 C 209.328125 224.378906 211.6875 222.019531 211.6875 219.089844 L 211.6875 203.210938 C 211.6875 197.347656 206.964844 192.628906 201.101562 192.628906 Z M 52.921875 192.628906 "/>
<path style="fill-rule:nonzero;fill:url(#linear3);stroke-width:3;stroke-linecap:round;stroke-linejoin:miter;stroke:rgb(12.941177%,12.941177%,12.941177%);stroke-opacity:1;stroke-miterlimit:4;" d="M 116.41857 191.383067 C 122.261762 191.383067 127.003497 196.124802 127.003497 201.967994 C 127.003497 207.811186 122.261762 212.552921 116.41857 212.552921 C 110.575378 212.552921 105.833643 207.811186 105.833643 201.967994 C 105.833643 196.124802 110.575378 191.383067 116.41857 191.383067 Z M 116.41857 191.383067 " transform="matrix(0.500048,0,0,0.500048,0,107.510266)"/>
<path style="fill-rule:nonzero;fill:rgb(44.901961%,28.431373%,73.921569%);fill-opacity:1;stroke-width:3;stroke-linecap:round;stroke-linejoin:miter;stroke:rgb(12.941177%,12.941177%,12.941177%);stroke-opacity:1;stroke-miterlimit:4;" d="M 158.750465 191.383067 C 164.593657 191.383067 169.335392 196.124802 169.335392 201.967994 C 169.335392 207.811186 164.593657 212.552921 158.750465 212.552921 C 152.907273 212.552921 148.165538 207.811186 148.165538 201.967994 C 148.165538 196.124802 152.907273 191.383067 158.750465 191.383067 Z M 158.750465 191.383067 " transform="matrix(0.500048,0,0,0.500048,0,107.510266)"/>
<path style="fill-rule:nonzero;fill:url(#linear4);stroke-width:3;stroke-linecap:round;stroke-linejoin:miter;stroke:rgb(12.941177%,12.941177%,12.941177%);stroke-opacity:1;stroke-miterlimit:4;" d="M 201.08236 191.164338 C 206.925552 191.164338 211.667287 195.906073 211.667287 201.749265 C 211.667287 207.592457 206.925552 212.334192 201.08236 212.334192 C 195.239168 212.334192 190.497433 207.592457 190.497433 201.749265 C 190.497433 195.906073 195.239168 191.164338 201.08236 191.164338 Z M 201.08236 191.164338 " transform="matrix(0.500048,0,0,0.500048,0,107.510266)"/>
<path style="fill-rule:nonzero;fill:url(#linear5);stroke-width:3;stroke-linecap:round;stroke-linejoin:miter;stroke:rgb(12.941177%,12.941177%,12.941177%);stroke-opacity:1;stroke-miterlimit:4;" d="M 391.579793 191.383067 C 397.430797 191.383067 402.16472 196.124802 402.16472 201.967994 C 402.16472 207.811186 397.430797 212.552921 391.579793 212.552921 C 385.736601 212.552921 381.002679 207.811186 381.002679 201.967994 C 381.002679 196.124802 385.736601 191.383067 391.579793 191.383067 Z M 391.579793 191.383067 " transform="matrix(0.500048,0,0,0.500048,0,107.510266)"/>
<path style=" stroke:none;fill-rule:nonzero;fill:rgb(100%,100%,100%);fill-opacity:0.392157;" d="M 52.921875 192.628906 C 47.058594 192.628906 42.335938 197.347656 42.335938 203.210938 L 42.335938 205.75 C 42.335938 199.886719 47.058594 195.164062 52.921875 195.164062 L 201.101562 195.164062 C 206.964844 195.164062 211.6875 199.886719 211.6875 205.75 L 211.6875 203.210938 C 211.6875 197.347656 206.964844 192.628906 201.101562 192.628906 Z M 52.921875 192.628906 "/>
<path style=" stroke:none;fill-rule:nonzero;fill:rgb(0%,0%,0%);fill-opacity:0.235294;" d="M 42.335938 216.441406 L 42.335938 219.089844 C 42.335938 222.019531 44.699219 224.378906 47.628906 224.378906 L 206.394531 224.378906 C 209.328125 224.378906 211.6875 222.019531 211.6875 219.089844 L 211.6875 216.441406 C 211.6875 219.375 209.328125 221.734375 206.394531 221.734375 L 47.628906 221.734375 C 44.699219 221.734375 42.335938 219.375 42.335938 216.441406 Z M 42.335938 216.441406 "/>
<path style=" stroke:none;fill-rule:nonzero;fill:rgb(12.941177%,12.941177%,12.941177%);fill-opacity:1;" d="M 52.921875 191.878906 C 46.65625 191.878906 41.585938 196.945312 41.585938 203.210938 L 41.585938 219.089844 C 41.585938 222.421875 44.296875 225.132812 47.628906 225.132812 L 206.394531 225.132812 C 209.730469 225.132812 212.4375 222.421875 212.4375 219.089844 L 212.4375 203.210938 C 212.4375 196.945312 207.367188 191.878906 201.101562 191.878906 Z M 52.921875 193.378906 L 201.101562 193.378906 C 206.5625 193.378906 210.9375 197.75 210.9375 203.210938 L 210.9375 219.089844 C 210.9375 221.617188 208.925781 223.628906 206.394531 223.628906 L 47.628906 223.628906 C 45.101562 223.628906 43.085938 221.617188 43.085938 219.089844 L 43.085938 203.210938 C 43.085938 197.75 47.460938 193.378906 52.921875 193.378906 Z M 52.921875 193.378906 "/>
<path style=" stroke:none;fill-rule:nonzero;fill:rgb(100%,100%,100%);fill-opacity:0.392157;" d="M 26.460938 34.363281 C 20.597656 34.363281 15.875 39.085938 15.875 44.949219 L 15.875 47.699219 C 15.875 41.835938 20.597656 37.113281 26.460938 37.113281 L 227.5625 37.113281 C 233.425781 37.113281 238.148438 41.835938 238.148438 47.699219 L 238.148438 44.949219 C 238.148438 39.085938 233.425781 34.363281 227.5625 34.363281 Z M 26.460938 34.363281 "/>
<path style=" stroke:none;fill-rule:nonzero;fill:rgb(12.941177%,12.941177%,12.941177%);fill-opacity:1;" d="M 26.460938 33.003906 C 20.195312 33.003906 15.125 38.070312 15.125 44.335938 L 15.125 213.6875 C 15.125 219.953125 20.195312 225.023438 26.460938 225.023438 L 227.5625 225.023438 C 233.828125 225.023438 238.898438 219.953125 238.898438 213.6875 L 238.898438 44.335938 C 238.898438 38.070312 233.828125 33.003906 227.5625 33.003906 Z M 26.460938 34.503906 L 227.5625 34.503906 C 233.023438 34.503906 237.398438 38.875 237.398438 44.335938 L 237.398438 213.6875 C 237.398438 219.148438 233.023438 223.519531 227.5625 223.519531 L 26.460938 223.519531 C 21 223.519531 16.625 219.148438 16.625 213.6875 L 16.625 44.335938 C 16.625 38.875 21 34.503906 26.460938 34.503906 Z M 26.460938 34.503906 "/>
</g>
</svg>

<svg xmlns="http://www.w3.org/2000/svg" width="256pt" height="256pt" viewBox="0 0 256 256"><defs><linearGradient id="a" gradientUnits="userSpaceOnUse" x1="254" y1="233.5" x2="254" y2="254.667" gradientTransform="matrix(.50005 0 0 .50005 0 107.51)"><stop offset="0" stop-opacity=".275"/><stop offset="1" stop-opacity="0"/></linearGradient><radialGradient id="b" gradientUnits="userSpaceOnUse" cx="450.909" cy="189.579" fx="450.909" fy="189.579" r="21.167" gradientTransform="matrix(0 -.62506 -1.1251 0 427.63 508.763)"><stop offset="0" stop-opacity=".314"/><stop offset=".222" stop-opacity=".275"/><stop offset="1" stop-opacity="0"/></radialGradient><radialGradient id="c" gradientUnits="userSpaceOnUse" cx="450.909" cy="189.579" fx="450.909" fy="189.579" r="21.167" gradientTransform="matrix(0 .62506 1.1251 0 -173.605 -60.22)"><stop offset="0" stop-opacity=".314"/><stop offset=".222" stop-opacity=".275"/><stop offset="1" stop-opacity="0"/></radialGradient><radialGradient id="d" gradientUnits="userSpaceOnUse" cx="450.909" cy="189.579" fx="450.909" fy="189.579" r="21.167" gradientTransform="matrix(0 -.62506 1.1251 0 -173.605 508.763)"><stop offset="0" stop-opacity=".314"/><stop offset=".222" stop-opacity=".275"/><stop offset="1" stop-opacity="0"/></radialGradient><radialGradient id="e" gradientUnits="userSpaceOnUse" cx="450.909" cy="189.579" fx="450.909" fy="189.579" r="21.167" gradientTransform="matrix(0 .62506 -1.1251 0 427.63 -60.22)"><stop offset="0" stop-opacity=".314"/><stop offset=".222" stop-opacity=".275"/><stop offset="1" stop-opacity="0"/></radialGradient><linearGradient id="f" gradientUnits="userSpaceOnUse" x1="254" y1="233.5" x2="254" y2="-147.5" gradientTransform="matrix(.50005 0 0 .50005 0 107.51)"><stop offset="0" stop-color="#616161"/><stop offset="1" stop-color="#757575"/></linearGradient><linearGradient id="g" gradientUnits="userSpaceOnUse" x1="880" y1="254.291" x2="880" y2="1694.291" gradientTransform="matrix(.1323 0 0 .1323 0 .11)"><stop offset="0" stop-color="#ff8a65"/><stop offset="1" stop-color="#ff7043"/></linearGradient><linearGradient id="h" gradientUnits="userSpaceOnUse" x1="444.5" y1="185.875" x2="444.5" y2="148.833" gradientTransform="matrix(.5 0 0 .57143 -105.833 106.338)"><stop offset="0" stop-color="#673ab7"/><stop offset="1" stop-color="#7e57c2"/></linearGradient><linearGradient id="i" gradientUnits="userSpaceOnUse" x1="444.5" y1="185.875" x2="444.5" y2="148.833" gradientTransform="matrix(.5 0 0 .57143 -21.167 106.12)"><stop offset="0" stop-color="#673ab7"/><stop offset="1" stop-color="#7e57c2"/></linearGradient><linearGradient id="j" gradientUnits="userSpaceOnUse" x1="444.5" y1="185.875" x2="444.5" y2="148.833" gradientTransform="matrix(.5 0 0 .57143 169.333 106.338)"><stop offset="0" stop-color="#673ab7"/><stop offset="1" stop-color="#7e57c2"/></linearGradient></defs><path d="M37.047 224.27H216.98v10.585H37.047zm0 0" fill="url(#a)"/><path d="M216.98 224.27h21.168v-10.583H216.98zm0 0" fill="url(#b)"/><path d="M37.047 224.27H15.875v10.585h21.172zm0 0" fill="url(#c)"/><path d="M37.047 224.27H15.875v-10.583h21.172zm0 0" fill="url(#d)"/><path d="M216.98 224.27h21.168v10.585H216.98zm0 0" fill="url(#e)"/><path d="M25.54 34.098h202.944c5.336 0 9.664 4.472 9.664 9.992v169.844c0 5.52-4.328 9.992-9.664 9.992H25.54c-5.336 0-9.664-4.473-9.664-9.992V44.09c0-5.52 4.328-9.992 9.664-9.992zm0 0" fill="url(#f)"/><path d="M26.46 224.375a10.561 10.561 0 0 1-10.585-10.582v-2.754a10.562 10.562 0 0 0 10.586 10.586h201.101a10.562 10.562 0 0 0 10.586-10.586v2.754a10.561 10.561 0 0 1-10.585 10.582zm0 0" fill-opacity=".235"/><path d="M52.922 192.629a10.561 10.561 0 0 0-10.586 10.582v15.879c0 2.93 2.363 5.289 5.293 5.289h158.766a5.279 5.279 0 0 0 5.292-5.29v-15.878a10.561 10.561 0 0 0-10.585-10.582zm0 0" fill="url(#g)"/><path d="M116.419 191.383c5.843 0 10.584 4.742 10.584 10.585 0 5.843-4.741 10.585-10.584 10.585-5.844 0-10.585-4.742-10.585-10.585 0-5.843 4.741-10.585 10.585-10.585zm0 0" transform="matrix(.50005 0 0 .50005 0 107.51)" fill="url(#h)" stroke-width="3" stroke-linecap="round" stroke="#212121"/><path d="M79.383 203.211a5.295 5.295 0 0 1 5.293 5.293 5.295 5.295 0 0 1-5.293 5.293 5.295 5.295 0 0 1-5.293-5.293 5.295 5.295 0 0 1 5.293-5.293zm0 0" fill="#7349bd" stroke-width="1.50015" stroke-linecap="round" stroke="#212121"/><path d="M201.082 191.164c5.844 0 10.585 4.742 10.585 10.585 0 5.843-4.741 10.585-10.585 10.585-5.843 0-10.585-4.742-10.585-10.585 0-5.843 4.742-10.585 10.585-10.585zm0 0" transform="matrix(.50005 0 0 .50005 0 107.51)" fill="url(#i)" stroke-width="3" stroke-linecap="round" stroke="#212121"/><path d="M391.58 191.383c5.85 0 10.585 4.742 10.585 10.585 0 5.843-4.734 10.585-10.585 10.585-5.843 0-10.577-4.742-10.577-10.585 0-5.843 4.734-10.585 10.577-10.585zm0 0" transform="matrix(.50005 0 0 .50005 0 107.51)" fill="url(#j)" stroke-width="3" stroke-linecap="round" stroke="#212121"/><path d="M52.922 192.629a10.561 10.561 0 0 0-10.586 10.582v2.539a10.564 10.564 0 0 1 10.586-10.586h148.18a10.564 10.564 0 0 1 10.585 10.586v-2.54a10.561 10.561 0 0 0-10.585-10.581zm0 0" fill="#fff" fill-opacity=".392"/><path d="M42.336 216.441v2.649c0 2.93 2.363 5.289 5.293 5.289h158.766a5.279 5.279 0 0 0 5.292-5.29v-2.648a5.28 5.28 0 0 1-5.292 5.293H47.629a5.282 5.282 0 0 1-5.293-5.293zm0 0" fill-opacity=".235"/><path d="M52.922 191.879c-6.266 0-11.336 5.066-11.336 11.332v15.879a6.05 6.05 0 0 0 6.043 6.043h158.766a6.047 6.047 0 0 0 6.042-6.043v-15.88c0-6.265-5.07-11.331-11.335-11.331zm0 1.5h148.18a9.796 9.796 0 0 1 9.835 9.832v15.879a4.514 4.514 0 0 1-4.542 4.539H47.629a4.516 4.516 0 0 1-4.543-4.54v-15.878a9.796 9.796 0 0 1 9.836-9.832zm0 0" fill="#212121"/><path d="M26.46 34.363A10.564 10.564 0 0 0 15.876 44.95v2.75a10.564 10.564 0 0 1 10.586-10.586h201.101A10.564 10.564 0 0 1 238.149 47.7v-2.75a10.564 10.564 0 0 0-10.585-10.586zm0 0" fill="#fff" fill-opacity=".392"/><path d="M26.46 33.004c-6.265 0-11.335 5.066-11.335 11.332v169.351a11.33 11.33 0 0 0 11.336 11.336h201.101a11.33 11.33 0 0 0 11.336-11.335V44.335c0-6.266-5.07-11.332-11.335-11.332zm0 1.5h201.102a9.796 9.796 0 0 1 9.836 9.832v169.351a9.796 9.796 0 0 1-9.835 9.833H26.46a9.796 9.796 0 0 1-9.836-9.833V44.337a9.796 9.796 0 0 1 9.836-9.832zm0 0" fill="#212121"/></svg>
